src/assets/icons/king-white.svg

<?xml version="1.0" encoding="iso-8859-1"?>
<!-- Generator: Adobe Illustrator 19.0.0, SVG Export Plug-In . SVG Version: 6.00 Build 0)  -->
<svg version="1.1" id="Capa_1" xmlns="http://www.w3.org/2000/svg" xmlns:xlink="http://www.w3.org/1999/xlink" x="0px" y="0px"
	 viewBox="0 0 512 512" style="enable-background:new 0 0 512 512;" xml:space="preserve">
<g>
	<g>
		<path d="M392.533,426.667h-4.46l2.668-6.671c3.408-8.526,3.239-18.065-0.469-26.464c-3.708-8.399-10.643-14.952-19.239-18.178
			l-26.556-9.958c3.471-4.434,5.367-9.898,5.389-15.529c-0.015-14.132-11.468-25.585-25.6-25.6h-8.533V179.2h8.533
			c14.138,0,25.6-11.461,25.6-25.6c0-14.139-11.461-25.6-25.6-25.6h-5.619l12.136-28.096c2.831-6.542,2.652-13.997-0.492-20.396
			c-3.509-6.99-9.905-12.092-17.5-13.958l-48.258-12.429V34.133h8.533c4.713,0,8.533-3.821,8.533-8.533s-3.82-8.533-8.533-8.533
			h-8.533V8.533C264.533,3.82,260.713,0,256,0c-4.713,0-8.533,3.82-8.533,8.533v8.533h-8.533c-4.713,0-8.533,3.82-8.533,8.533
			s3.82,8.533,8.533,8.533h8.533v18.988L199.208,65.55c-7.595,1.867-13.991,6.968-17.5,13.958
			c-3.143,6.398-3.323,13.853-0.492,20.396L193.353,128h-5.619c-14.138,0-25.6,11.461-25.6,25.6c0,14.138,11.462,25.6,25.6,25.6
			h8.533v145.067h-8.533c-14.132,0.015-25.585,11.468-25.6,25.6c0.022,5.631,1.918,11.095,5.389,15.529l-26.556,9.958
			c-8.596,3.226-15.531,9.778-19.239,18.178c-3.708,8.399-3.877,17.938-0.469,26.464l2.668,6.671h-4.46
			c-14.132,0.015-25.585,11.468-25.6,25.6V486.4c0.015,14.132,11.468,25.585,25.6,25.6h273.067
			c14.132-0.015,25.585-11.468,25.6-25.6v-34.133C418.118,438.135,406.665,426.682,392.533,426.667z M197.033,87.017
			c1.32-2.504,3.666-4.309,6.425-4.942L256,68.546l52.542,13.529c2.759,0.633,5.105,2.437,6.425,4.942
			c0.965,1.913,1.02,4.159,0.15,6.117v0.004L300.058,128h-88.117l-15.058-34.867C196.013,91.175,196.068,88.93,197.033,87.017z
			 M187.733,162.133c-4.711-0.005-8.529-3.823-8.533-8.533c0.005-4.711,3.822-8.529,8.533-8.533h136.533
			c4.713,0,8.533,3.821,8.533,8.533c0,4.713-3.82,8.533-8.533,8.533H187.733z M298.667,179.2v145.067h-85.333V179.2H298.667z
			 M187.733,341.333h136.533c4.713,0,8.533,3.82,8.533,8.533s-3.82,8.533-8.533,8.533H187.733c-4.713,0-8.533-3.82-8.533-8.533
			S183.021,341.333,187.733,341.333z M137.344,400.423c1.855-4.199,5.323-7.474,9.622-9.085l42.322-15.871h133.422l42.322,15.871
			c4.299,1.611,7.767,4.886,9.622,9.085s1.94,8.969,0.236,13.231l-5.205,13.013H142.314l-5.205-13.012
			C135.404,409.391,135.49,404.622,137.344,400.423z M401.067,486.4c-0.005,4.711-3.822,8.529-8.533,8.533H384v-17.067
			c0-4.713-3.82-8.533-8.533-8.533s-8.533,3.82-8.533,8.533v17.067h-17.067v-17.067c0-4.713-3.82-8.533-8.533-8.533
			s-8.533,3.82-8.533,8.533v17.067h-17.067v-17.067c0-4.713-3.82-8.533-8.533-8.533s-8.533,3.82-8.533,8.533v17.067H281.6v-17.067
			c0-4.713-3.82-8.533-8.533-8.533s-8.533,3.82-8.533,8.533v17.067h-17.067v-17.067c0-4.713-3.82-8.533-8.533-8.533
			s-8.533,3.82-8.533,8.533v17.067h-17.067v-17.067c0-4.713-3.82-8.533-8.533-8.533s-8.533,3.82-8.533,8.533v17.067H179.2v-17.067
			c0-4.713-3.82-8.533-8.533-8.533c-4.713,0-8.533,3.82-8.533,8.533v17.067h-17.067v-17.067c0-4.713-3.82-8.533-8.533-8.533
			s-8.533,3.82-8.533,8.533v17.067h-8.533c-4.711-0.005-8.529-3.822-8.533-8.533v-34.133c0.005-4.711,3.822-8.529,8.533-8.533
			h17.039l0.028,0.004l0.021-0.004h238.891l0.021,0.004l0.028-0.004h17.039c4.711,0.005,8.529,3.823,8.533,8.533V486.4z"/>
	</g>
</g>
<g>
</g>
<g>
</g>
<g>
</g>
<g>
</g>
<g>
</g>
<g>
</g>
<g>
</g>
<g>
</g>
<g>
</g>
<g>
</g>
<g>
</g>
<g>
</g>
<g>
</g>
<g>
</g>
<g>
</g>
</svg>

<svg width="512" height="512" viewBox="0 0 512 512" fill="none" xmlns="http://www.w3.org/2000/svg">
<path d="M392.533 426.667H388.073L390.741 419.996C394.149 411.47 393.98 401.931 390.272 393.532C386.564 385.133 379.629 378.58 371.033 375.354L344.477 365.396C347.948 360.962 349.844 355.498 349.866 349.867C349.851 335.735 338.398 324.282 324.266 324.267H315.733V179.2H324.266C338.404 179.2 349.866 167.739 349.866 153.6C349.866 139.461 338.405 128 324.266 128H318.647L330.783 99.904C333.614 93.362 333.435 85.907 330.291 79.508C326.782 72.518 320.386 67.416 312.791 65.55L264.533 53.121V34.133H273.066C277.779 34.133 281.599 30.312 281.599 25.6C281.599 20.888 277.779 17.067 273.066 17.067H264.533V8.533C264.533 3.82 260.713 0 256 0C251.287 0 247.467 3.82 247.467 8.533V17.066H238.934C234.221 17.066 230.401 20.886 230.401 25.599C230.401 30.312 234.221 34.132 238.934 34.132H247.467V53.12L199.208 65.55C191.613 67.417 185.217 72.518 181.708 79.508C178.565 85.906 178.385 93.361 181.216 99.904L193.353 128H187.734C173.596 128 162.134 139.461 162.134 153.6C162.134 167.738 173.596 179.2 187.734 179.2H196.267V324.267H187.734C173.602 324.282 162.149 335.735 162.134 349.867C162.156 355.498 164.052 360.962 167.523 365.396L140.967 375.354C132.371 378.58 125.436 385.132 121.728 393.532C118.02 401.931 117.851 411.47 121.259 419.996L123.927 426.667H119.467C105.335 426.682 93.882 438.135 93.867 452.267V486.4C93.882 500.532 105.335 511.985 119.467 512H392.534C406.666 511.985 418.119 500.532 418.134 486.4V452.267C418.118 438.135 406.665 426.682 392.533 426.667ZM197.033 87.017C198.353 84.513 200.699 82.708 203.458 82.075L256 68.546L308.542 82.075C311.301 82.708 313.647 84.512 314.967 87.017C315.932 88.93 315.987 91.176 315.117 93.134V93.138L300.058 128H211.941L196.883 93.133C196.013 91.175 196.068 88.93 197.033 87.017ZM187.733 162.133C183.022 162.128 179.204 158.31 179.2 153.6C179.205 148.889 183.022 145.071 187.733 145.067H324.266C328.979 145.067 332.799 148.888 332.799 153.6C332.799 158.313 328.979 162.133 324.266 162.133H187.733ZM298.667 179.2V324.267H213.334V179.2H298.667ZM187.733 341.333H324.266C328.979 341.333 332.799 345.153 332.799 349.866C332.799 354.579 328.979 358.399 324.266 358.399H187.733C183.02 358.399 179.2 354.579 179.2 349.866C179.2 345.153 183.021 341.333 187.733 341.333ZM137.344 400.423C139.199 396.224 142.667 392.949 146.966 391.338L189.288 375.467H322.71L365.032 391.338C369.331 392.949 372.799 396.224 374.654 400.423C376.509 404.622 376.594 409.392 374.89 413.654L369.685 426.667H142.314L137.109 413.655C135.404 409.391 135.49 404.622 137.344 400.423ZM401.067 486.4C401.062 491.111 397.245 494.929 392.534 494.933H384V477.866C384 473.153 380.18 469.333 375.467 469.333C370.754 469.333 366.934 473.153 366.934 477.866V494.933H349.867V477.866C349.867 473.153 346.047 469.333 341.334 469.333C336.621 469.333 332.801 473.153 332.801 477.866V494.933H315.734V477.866C315.734 473.153 311.914 469.333 307.201 469.333C302.488 469.333 298.668 473.153 298.668 477.866V494.933H281.6V477.866C281.6 473.153 277.78 469.333 273.067 469.333C268.354 469.333 264.534 473.153 264.534 477.866V494.933H247.467V477.866C247.467 473.153 243.647 469.333 238.934 469.333C234.221 469.333 230.401 473.153 230.401 477.866V494.933H213.334V477.866C213.334 473.153 209.514 469.333 204.801 469.333C200.088 469.333 196.268 473.153 196.268 477.866V494.933H179.2V477.866C179.2 473.153 175.38 469.333 170.667 469.333C165.954 469.333 162.134 473.153 162.134 477.866V494.933H145.067V477.866C145.067 473.153 141.247 469.333 136.534 469.333C131.821 469.333 128.001 473.153 128.001 477.866V494.933H119.468C114.757 494.928 110.939 491.111 110.935 486.4V452.267C110.94 447.556 114.757 443.738 119.468 443.734H136.507L136.535 443.738L136.556 443.734H375.447L375.468 443.738L375.496 443.734H392.535C397.246 443.739 401.064 447.557 401.068 452.267V486.4H401.067Z" fill="white"/>
</svg>
